dist/img/icons/ico-facebook.svg

<svg viewBox="0 0 11.515 22.332" xmlns="http://www.w3.org/2000/svg"><path d="m3.345 22.332v-9.989h-3.345v-3.969h3.345v-3.127c0-3.398 2.076-5.247 5.108-5.247a28.092 28.092 0 0 1 3.062.157v3.55h-2.1c-1.648 0-1.967.785-1.967 1.933v2.734h3.721l-.511 3.969h-3.213v9.989" fill="#fff"/></svg>

<svg xmlns="http://www.w3.org/2000/svg" viewBox="0 0 11.515 22.332"><title>ico-facebook</title><g id="Capa_2" data-name="Capa 2"><g id="Capa_1-2" data-name="Capa 1"><path d="M3.345,22.332V12.343H0V8.374H3.345V5.247C3.345,1.849,5.421,0,8.453,0a28.092,28.092,0,0,1,3.062.157v3.55h-2.1c-1.648,0-1.967.785-1.967,1.933V8.374h3.721l-.511,3.969H7.445v9.989" style="fill:#fff"/></g></g></svg>
